packages/core/src/svgs/tokens/mono/HTM.svg

<svg width="24" height="24" viewBox="0 0 24 24" fill="none" xmlns="http://www.w3.org/2000/svg">
<path d="M4.65333 7.03327C3.38667 5.5866 3.88668 3.29992 4.3 2.33325C3.65334 2.57326 2 3.83992 2 7.03327C2 10.6466 6.06667 12.2733 7.84001 14.26C9.61339 16.2466 10.1399 21.6667 11.9068 21.6667C13.6801 21.6667 14.4933 15.7467 16.16 14.26C17.5733 12.9933 22 10.4599 22 7.03327C22 4.28658 20.4667 2.75325 19.7001 2.33325C20.9733 4.21325 20.0534 5.9466 18.9934 7.03327C15.4534 11.0066 12.62 9.56659 11.9133 12.9933C11.56 9.5599 6.24668 8.83999 4.65333 7.03327Z" fill="white"/>
</svg>

<svg xmlns="http://www.w3.org/2000/svg" width="24" height="24" fill="none" viewBox="0 0 24 24">
    <path fill="#fff" d="M4.653 7.033C3.387 5.587 3.887 3.3 4.3 2.333c-.647.24-2.3 1.507-2.3 4.7 0 3.614 4.067 5.24 5.84 7.227s2.3 7.407 4.067 7.407c1.773 0 2.586-5.92 4.253-7.407 1.413-1.267 5.84-3.8 5.84-7.227 0-2.746-1.533-4.28-2.3-4.7 1.273 1.88.353 3.614-.707 4.7-3.54 3.974-6.373 2.534-7.08 5.96-.353-3.433-5.666-4.153-7.26-5.96"/>
</svg>
